src/24/actions/text_remove_kerns.svg

<svg xmlns="http://www.w3.org/2000/svg" viewBox="0 0 24 24">
  <defs id="defs3051">
    <style type="text/css" id="current-color-scheme">
      .ColorScheme-Text {
        color:#5d656b;
      }
      .ColorScheme-NegativeText {
        color:#da4453;
      }
      </style>
  </defs>
  <path 
     style="fill:currentColor;fill-opacity:1;stroke:none" 
     d="M 3 5 C 3 5 7.1338219 19.01731 7.1386719 19 C 7.1495449 19.0068 7.4919426 19.002 7.7480469 19 C 7.9105746 18.9987 7.9468692 19.0013 8.1347656 19 C 8.5008692 19.0032 8.9500334 19.0092 8.9648438 19 C 8.9698438 19.0173 13.103516 5 13.103516 5 L 12 5 L 8.2792969 17 L 7.8164062 17 C 7.8164062 17 4.1028803 4.9995973 4.1035156 5 L 3 5 z M 14.378906 5 L 10.042969 18.863281 L 10 19 L 11.136719 19 L 12.701172 14 L 17.5625 14 L 17.882812 14 L 19.044922 14 L 15.527344 5 L 14.378906 5 z M 14.888672 7 L 15.146484 7 L 17.492188 13 L 13.011719 13 L 14.888672 7 z "
     class="ColorScheme-Text"/>
  <path
     style="fill:currentColor;fill-opacity:1;stroke:none" 
     d="M 15.990234 15 L 15 15.990234 L 17.009766 18 L 15 20.009766 L 15.990234 21 L 18 18.990234 L 20.009766 21 L 21 20.009766 L 18.990234 18 L 21 15.990234 L 20.009766 15 L 18 17.009766 L 15.990234 15 z "
     class="ColorScheme-NegativeText"
     />
</svg>

<svg xmlns="http://www.w3.org/2000/svg" viewBox="0 0 24 24"><path d="M3 5s4.134 14.017 4.139 14c.01.007.353.002.609 0h.387c.366.003.815.01.83 0 .005.017 4.139-14 4.139-14H12L8.28 17h-.464L4.104 5H3zm11.379 0l-4.336 13.863L10 19h1.137l1.564-5h6.344l-3.518-9H14.38zm.51 2h.257l2.346 6h-4.48l1.877-6z" fill="currentColor" color="#5d656b"/><path d="M15.99 15l-.99.99L17.01 18 15 20.01l.99.99L18 18.99 20.01 21l.99-.99L18.99 18 21 15.99l-.99-.99L18 17.01 15.99 15z" fill="currentColor" color="#da4453"/></svg>
